Paco-Server/ear/default/img/ic_unfoldLess.svg

<svg xmlns="http://www.w3.org/2000/svg" width="24" height="24" viewBox="0 0 24 24">
    <path d="M7.414 18.586l1.414 1.414 3.172-3.172 3.172 3.172 1.414-1.414-4.586-4.586-4.586 4.586zm9.172-13.172l-1.414-1.414-3.172 3.172-3.172-3.172-1.414 1.414 4.586 4.586 4.586-4.586z"/>
</svg>

<svg xmlns="http://www.w3.org/2000/svg" width="24" height="24" viewBox="0 0 24 24"><path d="M7.414 18.586L8.828 20 12 16.828 15.172 20l1.414-1.414L12 14l-4.586 4.586zm9.172-13.172L15.172 4 12 7.172 8.828 4 7.414 5.414 12 10l4.586-4.586z"/></svg>
